; generated by Slic3r 1.2.9 on 2016-12-03 at 14:49:56

; external perimeters extrusion width = 0.30mm
; perimeters extrusion width = 0.30mm
; infill extrusion width = 0.30mm
; solid infill extrusion width = 0.30mm
; top infill extrusion width = 0.30mm

M107
M104 S185 ; set temperature
G28 ; home all axes
G1 Z5 F5000 ; lift nozzle

M109 S185 ; wait for temperature to be reached
G21 ; set units to millimeters
G90 ; use absolute coordinates
M82 ; use absolute distances for extrusion
G92 E0
G1 Z0.250 F6000.000
G1 E-2.00000 F2400.00000
G92 E0
G1 X59.975 Y55.097 F6000.000
G1 E2.00000 F2400.00000
G1 X61.982 Y53.911 E2.06853 F2160.000
G1 X64.412 Y53.465 E2.14115
G1 X135.588 Y53.465 E4.23283
G1 X137.886 Y53.862 E4.30136
G1 X139.917 Y55.007 E4.36990 F2160.000
G1 X141.518 Y56.889 E4.44251
G1 X148.518 Y69.013 E4.85394
G1 X149.323 Y71.202 E4.92247
G1 X149.347 Y73.534 E4.99101
G1 X148.518 Y75.862 E5.06362
G1 X112.931 Y137.501 E7.15530
G1 X111.438 Y139.293 E7.22383
G1 X109.430 Y140.480 E7.29237
G1 X107.000 Y140.925 E7.36498
G1 X93.000 Y140.925 E7.77641
G1 X90.702 Y140.528 E7.84494
G1 X88.670 Y139.383 E7.91348
G1 X87.069 Y137.501 E7.98609
G1 X51.482 Y75.862 E10.07777
G1 X50.677 Y73.673 E10.14631
G1 X50.653 Y71.341 E10.21484
G1 X51.482 Y69.013 E10.28745
G1 X58.482 Y56.889 E10.69888
G1 X59.946 Y55.132 E10.76609
G1 X60.194 Y55.282 F6000.000
G1 X62.172 Y54.142 E10.83319 F2160.000
G1 X64.412 Y53.748 E10.90003
G1 X135.588 Y53.748 E12.99171
G1 X137.836 Y54.145 E13.05881
G1 X139.812 Y55.287 E13.12590 F2160.000
G1 X141.273 Y57.030 E13.19274
G1 X148.273 Y69.155 E13.60417
G1 X149.054 Y71.300 E13.67126
G1 X149.052 Y73.583 E13.73836
G1 X148.273 Y75.720 E13.80519
G1 X112.686 Y137.360 E15.89687
G1 X111.218 Y139.108 E15.96397
G1 X109.240 Y140.249 E16.03106
G1 X107.000 Y140.643 E16.09790
G1 X93.000 Y140.643 E16.50933
G1 X90.752 Y140.246 E16.57642
G1 X88.775 Y139.103 E16.64352
G1 X87.314 Y137.360 E16.71036
G1 X51.727 Y75.720 E18.80204
G1 X50.946 Y73.575 E18.86913
G1 X50.948 Y71.292 E18.93622
G1 X51.726 Y69.155 E19.00306
G1 X58.727 Y57.030 E19.41449
G1 X60.165 Y55.316 E19.48026
G1 X60.414 Y55.467 F6000.000
G1 X62.361 Y54.375 E19.54589 F2160.000
G1 X64.412 Y54.030 E19.60701
G1 X135.588 Y54.030 E21.69869
G1 X137.785 Y54.427 E21.76431
G1 X139.705 Y55.568 E21.82994 F2160.000
G1 X141.029 Y57.172 E21.89106
G1 X148.029 Y69.296 E22.30249
G1 X148.784 Y71.398 E22.36811
G1 X148.756 Y73.630 E22.43373
G1 X148.029 Y75.579 E22.49485
G1 X112.441 Y137.218 E24.58653
G1 X110.999 Y138.923 E24.65216
G1 X109.051 Y140.016 E24.71778
G1 X107.000 Y140.360 E24.77890
G1 X93.000 Y140.360 E25.19033
G1 X90.803 Y139.963 E25.25595
G1 X88.883 Y138.823 E25.32157
G1 X87.559 Y137.218 E25.38270
G1 X51.971 Y75.579 E27.47438
G1 X51.216 Y73.477 E27.54000
G1 X51.244 Y71.245 E27.60562
G1 X51.971 Y69.296 E27.66674
G1 X58.971 Y57.172 E28.07817
G1 X60.384 Y55.502 E28.14246
G1 E26.14246 F2400.00000
G92 E0
G1 X102.057 Y104.599 F6000.000
G1 E2.00000 F2400.00000
G1 X101.791 Y104.888 E2.01006 F1080.000
G1 X101.447 Y105.157 E2.02124
G1 X101.062 Y105.365 E2.03243
G1 X100.649 Y105.507 E2.04361
G1 X100.218 Y105.578 E2.05480
G1 X99.782 Y105.578 E2.06598
G1 X99.351 Y105.507 E2.07717
G1 X98.938 Y105.365 E2.08835
G1 X98.553 Y105.157 E2.09954
G1 X98.216 Y104.894 E2.11049
G1 X97.913 Y104.568 E2.12187
G1 X97.674 Y104.201 E2.13309
G1 X97.498 Y103.801 E2.14427
G1 X97.391 Y103.378 E2.15546
G1 X97.355 Y102.943 E2.16664
G1 X97.391 Y102.507 E2.17783
G1 X97.498 Y102.084 E2.18901
G1 X97.674 Y101.684 E2.20020
G1 X97.913 Y101.318 E2.21138
G1 X98.209 Y100.997 E2.22257
G1 X98.553 Y100.728 E2.23375
G1 X98.930 Y100.525 E2.24471
G1 X99.350 Y100.379 E2.25609
G1 X99.782 Y100.307 E2.26731
G1 X100.218 Y100.307 E2.27849 F1080.000
G1 X100.649 Y100.379 E2.28968
G1 X101.062 Y100.520 E2.30086
G1 X101.447 Y100.728 E2.31205
G1 X101.791 Y100.997 E2.32323
G1 X102.087 Y101.318 E2.33442
G1 X102.326 Y101.684 E2.34560
G1 X102.502 Y102.084 E2.35679
G1 X102.609 Y102.507 E2.36797
G1 X102.645 Y102.943 E2.37916
G1 X102.609 Y103.378 E2.39034
G1 X102.504 Y103.793 E2.40130
G1 X102.327 Y104.200 E2.41268
G1 X102.088 Y104.566 E2.42387
G1 X101.876 Y104.433 F6000.000
G1 X101.624 Y104.707 E2.43340 F1080.000
G1 X101.311 Y104.950 E2.44354
G1 X100.963 Y105.138 E2.45368
G1 X100.589 Y105.267 E2.46382
G1 X100.198 Y105.332 E2.47396
G1 X99.802 Y105.332 E2.48410
G1 X99.411 Y105.267 E2.49424
G1 X99.037 Y105.138 E2.50438
G1 X98.689 Y104.950 E2.51452
G1 X98.383 Y104.712 E2.52444
G1 X98.108 Y104.416 E2.53478
G1 X97.891 Y104.084 E2.54494
G1 X97.732 Y103.721 E2.55508
G1 X97.635 Y103.337 E2.56522
G1 X97.602 Y102.943 E2.57536
G1 X97.635 Y102.548 E2.58550
G1 X97.732 Y102.164 E2.59563
G1 X97.891 Y101.801 E2.60577
G1 X98.108 Y101.470 E2.61591
G1 X98.376 Y101.179 E2.62605
G1 X98.689 Y100.935 E2.63619
G1 X99.029 Y100.751 E2.64612
G1 X99.411 Y100.618 E2.65645
G1 X99.802 Y100.553 E2.66661
G1 X100.198 Y100.553 E2.67675 F1080.000
G1 X100.589 Y100.618 E2.68689
G1 X100.963 Y100.747 E2.69703
G1 X101.311 Y100.935 E2.70717
G1 X101.624 Y101.179 E2.71731
G1 X101.892 Y101.470 E2.72745
G1 X102.109 Y101.801 E2.73759
G1 X102.268 Y102.164 E2.74773
G1 X102.365 Y102.548 E2.75787
G1 X102.398 Y102.943 E2.76801
G1 X102.365 Y103.337 E2.77815
G1 X102.270 Y103.713 E2.78807
G1 X102.109 Y104.083 E2.79840
G1 X101.904 Y104.397 E2.80801
G1 X101.695 Y104.266 F6000.000
G1 X101.456 Y104.525 E2.81703 F1080.000
G1 X101.176 Y104.743 E2.82612
G1 X100.864 Y104.912 E2.83521
G1 X100.528 Y105.027 E2.84431
G1 X100.178 Y105.086 E2.85340
G1 X99.822 Y105.086 E2.86250
G1 X99.472 Y105.027 E2.87159
G1 X99.136 Y104.912 E2.88069
G1 X98.824 Y104.743 E2.88978
G1 X98.550 Y104.530 E2.89867
G1 X98.303 Y104.264 E2.90796
G1 X98.109 Y103.966 E2.91706
G1 X97.966 Y103.641 E2.92615
G1 X97.879 Y103.297 E2.93525
G1 X97.849 Y102.943 E2.94434
G1 X97.879 Y102.589 E2.95344
G1 X97.966 Y102.244 E2.96253
G1 X98.109 Y101.919 E2.97163
G1 X98.303 Y101.622 E2.98072
G1 X98.543 Y101.360 E2.98981
G1 X98.824 Y101.142 E2.99891
G1 X99.129 Y100.977 E3.00780
G1 X99.472 Y100.858 E3.01709
G1 X99.822 Y100.799 E3.02619
G1 X100.178 Y100.799 E3.03528 F1080.000
G1 X100.528 Y100.858 E3.04438
G1 X100.864 Y100.973 E3.05347
G1 X101.176 Y101.142 E3.06257
G1 X101.456 Y101.360 E3.07166
G1 X101.697 Y101.622 E3.08075
G1 X101.891 Y101.919 E3.08985
G1 X102.034 Y102.244 E3.09894
G1 X102.121 Y102.589 E3.10804
G1 X102.150 Y102.943 E3.11713
G1 X102.121 Y103.297 E3.12623
G1 X102.036 Y103.633 E3.13511
G1 X101.891 Y103.966 E3.14440
G1 X101.720 Y104.228 E3.15244
G1 X101.800 Y104.547 F6000.000
G1 X110.136 Y97.686 F6000.000
G1 X109.872 Y97.329 E3.16382 F1080.000
G1 X109.674 Y96.938 E3.17503
G1 X109.543 Y96.521 E3.18622
G1 X109.483 Y96.088 E3.19740
G1 X109.496 Y95.652 E3.20859
G1 X109.579 Y95.223 E3.21977
G1 X109.729 Y94.822 E3.23073
G1 X109.950 Y94.436 E3.24211
G1 X110.229 Y94.098 E3.25333
G1 X110.558 Y93.811 E3.26451
G1 X110.930 Y93.583 E3.27570
G1 X111.335 Y93.418 E3.28688
G1 X111.761 Y93.323 E3.29807
G1 X112.188 Y93.299 E3.30902 F1080.000
G1 X112.630 Y93.346 E3.32040
G1 X113.052 Y93.466 E3.33162
G1 X113.447 Y93.652 E3.34280
G1 X113.806 Y93.901 E3.35399
G1 X114.119 Y94.206 E3.36517
G1 X114.378 Y94.557 E3.37636
G1 X114.575 Y94.947 E3.38754
G1 X114.705 Y95.364 E3.39873
G1 X114.765 Y95.797 E3.40991
G1 X114.753 Y96.234 E3.42110
G1 X114.669 Y96.662 E3.43228
G1 X114.516 Y97.071 E3.44347
G1 X114.302 Y97.442 E3.45442
G1 X114.021 Y97.786 E3.46580
G1 X113.691 Y98.074 E3.47702
G1 X113.319 Y98.302 E3.48820
G1 X112.914 Y98.467 E3.49939
G1 X112.488 Y98.562 E3.51057
G1 X112.051 Y98.586 E3.52176
G1 X111.617 Y98.538 E3.53294
G1 X111.197 Y98.420 E3.54413
G1 X110.802 Y98.233 E3.55531
G1 X110.443 Y97.984 E3.56650
G1 X110.168 Y97.717 E3.57630
G1 X110.322 Y97.523 F6000.000
G1 X110.082 Y97.199 E3.58664 F1080.000
G1 X109.903 Y96.845 E3.59680
G1 X109.785 Y96.467 E3.60694
G1 X109.730 Y96.075 E3.61708
G1 X109.741 Y95.679 E3.62722
G1 X109.817 Y95.290 E3.63736
G1 X109.953 Y94.927 E3.64728
G1 X110.153 Y94.577 E3.65761
G1 X110.406 Y94.271 E3.66777
G1 X110.704 Y94.011 E3.67791
G1 X111.042 Y93.803 E3.68805
G1 X111.409 Y93.654 E3.69819
G1 X111.795 Y93.568 E3.70833
G1 X112.182 Y93.546 E3.71825 F1080.000
G1 X112.583 Y93.589 E3.72859
G1 X112.965 Y93.697 E3.73875
G1 X113.323 Y93.866 E3.74889
G1 X113.649 Y94.092 E3.75903
G1 X113.932 Y94.368 E3.76917
G1 X114.167 Y94.687 E3.77930
G1 X114.346 Y95.040 E3.78944
G1 X114.464 Y95.418 E3.79958
G1 X114.518 Y95.810 E3.80972
G1 X114.507 Y96.206 E3.81986
G1 X114.432 Y96.595 E3.83000
G1 X114.293 Y96.966 E3.84014
G1 X114.099 Y97.301 E3.85006
G1 X113.844 Y97.614 E3.86040
G1 X113.544 Y97.875 E3.87056
G1 X113.207 Y98.082 E3.88070
G1 X112.840 Y98.231 E3.89084
G1 X112.454 Y98.318 E3.90098
G1 X112.058 Y98.339 E3.91112
G1 X111.665 Y98.296 E3.92126
G1 X111.284 Y98.188 E3.93140
G1 X110.925 Y98.019 E3.94154
G1 X110.600 Y97.793 E3.95168
G1 X110.355 Y97.555 E3.96045
G1 X110.508 Y97.360 F6000.000
G1 X110.292 Y97.069 E3.96974 F1080.000
G1 X110.132 Y96.752 E3.97884
G1 X110.026 Y96.413 E3.98793
G1 X109.977 Y96.061 E3.99703
G1 X109.987 Y95.706 E4.00612
G1 X110.055 Y95.357 E4.01521
G1 X110.177 Y95.032 E4.02410
G1 X110.357 Y94.717 E4.03339
G1 X110.583 Y94.443 E4.04249
G1 X110.851 Y94.210 E4.05159
G1 X111.153 Y94.024 E4.06068
G1 X111.482 Y93.890 E4.06978
G1 X111.829 Y93.812 E4.07887
G1 X112.176 Y93.793 E4.08776 F1080.000
G1 X112.536 Y93.832 E4.09705
G1 X112.878 Y93.929 E4.10615
G1 X113.200 Y94.080 E4.11525
G1 X113.491 Y94.283 E4.12434
G1 X113.746 Y94.530 E4.13343
G1 X113.956 Y94.816 E4.14253
G1 X114.117 Y95.133 E4.15162
G1 X114.223 Y95.472 E4.16072
G1 X114.272 Y95.824 E4.16981
G1 X114.262 Y96.179 E4.17891
G1 X114.194 Y96.528 E4.18800
G1 X114.069 Y96.860 E4.19709
G1 X113.896 Y97.161 E4.20598
G1 X113.666 Y97.442 E4.21527
G1 X113.398 Y97.675 E4.22437
G1 X113.095 Y97.861 E4.23347
G1 X112.766 Y97.995 E4.24256
G1 X112.420 Y98.073 E4.25166
G1 X112.065 Y98.092 E4.26075
G1 X111.712 Y98.053 E4.26985
G1 X111.370 Y97.957 E4.27894
G1 X111.049 Y97.805 E4.28803
G1 X110.757 Y97.603 E4.29713
G1 X110.541 Y97.392 E4.30486
G1 X110.213 Y97.411 F6000.000
G1 E2.30486 F2400.00000
G92 E0
G1 X111.761 Y84.562 F6000.000
G1 E2.00000 F2400.00000
G1 X111.335 Y84.467 E2.01119 F1080.000
G1 X110.930 Y84.302 E2.02237
G1 X110.558 Y84.074 E2.03355
G1 X110.229 Y83.787 E2.04474
G1 X109.951 Y83.450 E2.05593
G1 X109.732 Y83.071 E2.06711
G1 X109.579 Y82.662 E2.07829
G1 X109.496 Y82.234 E2.08948
G1 X109.483 Y81.797 E2.10066
G1 X109.543 Y81.364 E2.11185
G1 X109.671 Y80.956 E2.12281
G1 X109.870 Y80.558 E2.13419
G1 X110.130 Y80.206 E2.14540
G1 X110.443 Y79.901 E2.15659
G1 X110.802 Y79.652 E2.16777
G1 X111.197 Y79.466 E2.17896
G1 X111.617 Y79.347 E2.19014
G1 X112.043 Y79.300 E2.20110 F1080.000
G1 X112.486 Y79.322 E2.21248
G1 X112.914 Y79.418 E2.22369
G1 X113.319 Y79.583 E2.23488
G1 X113.691 Y79.811 E2.24606
G1 X114.020 Y80.098 E2.25725
G1 X114.298 Y80.435 E2.26843
G1 X114.516 Y80.814 E2.27962
G1 X114.669 Y81.223 E2.29080
G1 X114.753 Y81.652 E2.30199
G1 X114.765 Y82.088 E2.31317
G1 X114.705 Y82.521 E2.32436
G1 X114.577 Y82.929 E2.33531
G1 X114.378 Y83.327 E2.34670
G1 X114.119 Y83.680 E2.35791
G1 X113.806 Y83.984 E2.36910
G1 X113.454 Y84.228 E2.38005
G1 X113.053 Y84.419 E2.39143
G1 X112.631 Y84.538 E2.40265
G1 X112.197 Y84.586 E2.41383
G1 X111.806 Y84.565 E2.42387
G1 X111.795 Y84.318 F6000.000
G1 X111.409 Y84.231 E2.43401 F1080.000
G1 X111.042 Y84.082 E2.44415
G1 X110.704 Y83.875 E2.45429
G1 X110.406 Y83.614 E2.46442
G1 X110.154 Y83.309 E2.47456
G1 X109.956 Y82.966 E2.48470
G1 X109.817 Y82.595 E2.49484
G1 X109.741 Y82.206 E2.50498
G1 X109.730 Y81.810 E2.51512
G1 X109.785 Y81.418 E2.52526
G1 X109.900 Y81.048 E2.53518
G1 X110.081 Y80.688 E2.54552
G1 X110.316 Y80.368 E2.55568
G1 X110.600 Y80.092 E2.56582
G1 X110.925 Y79.866 E2.57596
G1 X111.284 Y79.697 E2.58610
G1 X111.665 Y79.589 E2.59624
G1 X112.050 Y79.547 E2.60616 F1080.000
G1 X112.453 Y79.567 E2.61649
G1 X112.840 Y79.654 E2.62665
G1 X113.207 Y79.803 E2.63679
G1 X113.544 Y80.011 E2.64693
G1 X113.843 Y80.271 E2.65707
G1 X114.095 Y80.576 E2.66721
G1 X114.293 Y80.919 E2.67735
G1 X114.432 Y81.290 E2.68749
G1 X114.507 Y81.679 E2.69763
G1 X114.518 Y82.075 E2.70777
G1 X114.464 Y82.467 E2.71791
G1 X114.348 Y82.837 E2.72783
G1 X114.167 Y83.198 E2.73817
G1 X113.932 Y83.517 E2.74833
G1 X113.649 Y83.793 E2.75847
G1 X113.330 Y84.014 E2.76839
G1 X112.966 Y84.188 E2.77872
G1 X112.584 Y84.296 E2.78888
G1 X112.190 Y84.339 E2.79902
G1 X111.840 Y84.320 E2.80801
G1 X111.829 Y84.073 F6000.000
G1 X111.482 Y83.995 E2.81710 F1080.000
G1 X111.153 Y83.861 E2.82620
G1 X110.851 Y83.675 E2.83529
G1 X110.583 Y83.442 E2.84439
G1 X110.357 Y83.168 E2.85348
G1 X110.180 Y82.860 E2.86257
G1 X110.055 Y82.528 E2.87167
G1 X109.987 Y82.179 E2.88076
G1 X109.977 Y81.824 E2.88986
G1 X110.026 Y81.472 E2.89895
G1 X110.130 Y81.141 E2.90784
G1 X110.292 Y80.817 E2.91713
G1 X110.503 Y80.530 E2.92623
G1 X110.757 Y80.283 E2.93533
G1 X111.049 Y80.080 E2.94442
G1 X111.370 Y79.929 E2.95351
G1 X111.712 Y79.832 E2.96261
G1 X112.057 Y79.794 E2.97150 F1080.000
G1 X112.419 Y79.812 E2.98079
G1 X112.766 Y79.890 E2.98989
G1 X113.095 Y80.024 E2.99898
G1 X113.398 Y80.210 E3.00808
G1 X113.666 Y80.443 E3.01717
G1 X113.892 Y80.717 E3.02627
G1 X114.069 Y81.025 E3.03536
G1 X114.194 Y81.357 E3.04445
G1 X114.262 Y81.706 E3.05355
G1 X114.272 Y82.061 E3.06264
G1 X114.223 Y82.413 E3.07174
G1 X114.119 Y82.744 E3.08063
G1 X113.957 Y83.068 E3.08992
G1 X113.746 Y83.355 E3.09902
G1 X113.491 Y83.603 E3.10811
G1 X113.206 Y83.800 E3.11700
G1 X112.879 Y83.956 E3.12629
G1 X112.537 Y84.053 E3.13539
G1 X112.184 Y84.092 E3.14449
G1 X111.874 Y84.075 E3.15243
G1 X111.638 Y84.304 F6000.000
G1 E1.15243 F2400.00000
G92 E0
G1 X102.087 Y76.567 F6000.000
G1 E2.00000 F2400.00000
G1 X101.791 Y76.888 E2.01118 F1080.000
G1 X101.447 Y77.157 E2.02237
G1 X101.062 Y77.365 E2.03355
G1 X100.649 Y77.507 E2.04474
G1 X100.218 Y77.578 E2.05592
G1 X99.782 Y77.578 E2.06711
G1 X99.351 Y77.507 E2.07829
G1 X98.938 Y77.365 E2.08948
G1 X98.553 Y77.157 E2.10066
G1 X98.216 Y76.894 E2.11162
G1 X97.913 Y76.568 E2.12300
G1 X97.674 Y76.201 E2.13422
G1 X97.498 Y75.801 E2.14540
G1 X97.391 Y75.378 E2.15659
G1 X97.355 Y74.943 E2.16777
G1 X97.391 Y74.507 E2.17896
G1 X97.498 Y74.084 E2.19014
G1 X97.674 Y73.684 E2.20133
G1 X97.913 Y73.318 E2.21251
G1 X98.209 Y72.997 E2.22370
G1 X98.553 Y72.728 E2.23488
G1 X98.930 Y72.525 E2.24584
G1 X99.350 Y72.379 E2.25722
G1 X99.782 Y72.307 E2.26843
G1 X100.218 Y72.307 E2.27962 F1080.000
G1 X100.649 Y72.379 E2.29080
G1 X101.054 Y72.518 E2.30176
G1 X101.446 Y72.728 E2.31314
G1 X101.791 Y72.997 E2.32436
G1 X102.087 Y73.318 E2.33554
G1 X102.326 Y73.684 E2.34673
G1 X102.498 Y74.076 E2.35768
G1 X102.609 Y74.506 E2.36906
G1 X102.645 Y74.943 E2.38028
G1 X102.609 Y75.378 E2.39146
G1 X102.502 Y75.801 E2.40265
G1 X102.326 Y76.201 E2.41383
G1 X102.112 Y76.529 E2.42387
G1 X101.892 Y76.415 F6000.000
G1 X101.624 Y76.707 E2.43401 F1080.000
G1 X101.311 Y76.950 E2.44415
G1 X100.963 Y77.138 E2.45429
G1 X100.589 Y77.267 E2.46442
G1 X100.198 Y77.332 E2.47456
G1 X99.802 Y77.332 E2.48470
G1 X99.411 Y77.267 E2.49484
G1 X99.037 Y77.138 E2.50498
G1 X98.689 Y76.950 E2.51512
G1 X98.383 Y76.712 E2.52505
G1 X98.108 Y76.416 E2.53538
G1 X97.891 Y76.084 E2.54554
G1 X97.732 Y75.721 E2.55568
G1 X97.635 Y75.337 E2.56582
G1 X97.602 Y74.943 E2.57596
G1 X97.635 Y74.548 E2.58610
G1 X97.732 Y74.164 E2.59624
G1 X97.891 Y73.801 E2.60638
G1 X98.108 Y73.470 E2.61652
G1 X98.376 Y73.179 E2.62666
G1 X98.689 Y72.935 E2.63680
G1 X99.029 Y72.751 E2.64672
G1 X99.411 Y72.618 E2.65705
G1 X99.802 Y72.553 E2.66721
G1 X100.198 Y72.553 E2.67735 F1080.000
G1 X100.589 Y72.618 E2.68749
G1 X100.955 Y72.744 E2.69741
G1 X101.311 Y72.935 E2.70775
G1 X101.624 Y73.179 E2.71791
G1 X101.892 Y73.470 E2.72805
G1 X102.109 Y73.801 E2.73819
G1 X102.264 Y74.156 E2.74811
G1 X102.365 Y74.547 E2.75844
G1 X102.398 Y74.943 E2.76860
G1 X102.365 Y75.337 E2.77874
G1 X102.268 Y75.721 E2.78888
G1 X102.109 Y76.084 E2.79902
G1 X101.917 Y76.378 E2.80801
G1 X101.697 Y76.263 F6000.000
G1 X101.456 Y76.525 E2.81710 F1080.000
G1 X101.176 Y76.743 E2.82620
G1 X100.864 Y76.912 E2.83529
G1 X100.528 Y77.027 E2.84439
G1 X100.178 Y77.086 E2.85348
