; generated by Slic3r 1.2.9 on 2016-12-03 at 14:59:53

; external perimeters extrusion width = 0.30mm
; perimeters extrusion width = 0.30mm
; infill extrusion width = 0.30mm
; solid infill extrusion width = 0.30mm
; top infill extrusion width = 0.30mm

M107
M104 S185 ; set temperature
G28 ; home all axes
G1 Z5 F5000 ; lift nozzle

M109 S185 ; wait for temperature to be reached
G21 ; set units to millimeters
G90 ; use absolute coordinates
M82 ; use absolute distances for extrusion
G92 E0
G1 Z0.250 F6000.000
G1 E-2.00000 F2400.00000
G92 E0
G1 X81.694 Y82.670 F6000.000
G1 E2.00000 F2400.00000
G1 X83.455 Y81.141 E2.06853 F2160.000
G1 X85.626 Y80.291 E2.13707
G1 X87.000 Y80.152 E2.17765
G1 X113.000 Y80.152 E2.94173
G1 X115.298 Y80.549 E3.01027
G1 X117.330 Y81.694 E3.07880 F2160.000
G1 X118.859 Y83.455 E3.14733
G1 X119.709 Y85.626 E3.21587
G1 X119.848 Y87.000 E3.25645
G1 X119.848 Y113.000 E4.02053
G1 X119.451 Y115.298 E4.08906
G1 X118.306 Y117.330 E4.15760
G1 X116.545 Y118.859 E4.22613
G1 X114.374 Y119.709 E4.29467
G1 X113.000 Y119.848 E4.33525
G1 X87.000 Y119.848 E5.09933
G1 X84.702 Y119.451 E5.16786
G1 X82.670 Y118.306 E5.23640
G1 X81.141 Y116.545 E5.30493
G1 X80.291 Y114.374 E5.37347
G1 X80.152 Y113.000 E5.41405
G1 X80.152 Y87.000 E6.17813
G1 X80.549 Y84.702 E6.24666
G1 X81.672 Y82.710 E6.31388
G1 X81.950 Y82.818 F6000.000
G1 X81.974 Y82.775 E6.31533 F2160.000
G1 X83.725 Y81.310 E6.38243
G1 X87.000 Y80.435 E6.48205
G1 X113.000 Y80.435 E7.24613
G1 X115.248 Y80.831 E7.31323
G1 X117.225 Y81.974 E7.38032 F2160.000
G1 X118.690 Y83.725 E7.44742
G1 X119.565 Y87.000 E7.54704
G1 X119.565 Y113.000 E8.31112
G1 X119.169 Y115.248 E8.37822
G1 X118.026 Y117.225 E8.44531
G1 X116.275 Y118.690 E8.51241
G1 X113.000 Y119.565 E8.61203
G1 X87.000 Y119.565 E9.37611
G1 X84.752 Y119.169 E9.44321
G1 X82.775 Y118.026 E9.51030
G1 X81.310 Y116.275 E9.57739
G1 X80.435 Y113.000 E9.67702
G1 X80.435 Y87.000 E10.44110
G1 X80.831 Y84.752 E10.50820
G1 X81.927 Y82.857 E10.57251
G1 X82.203 Y82.969 F6000.000
G1 X82.254 Y82.883 E10.57546 F2160.000
G1 X83.994 Y81.483 E10.64108
G1 X87.000 Y80.717 E10.73223
G1 X113.000 Y80.717 E11.49631
G1 X115.197 Y81.114 E11.56194
G1 X117.117 Y82.254 E11.62756 F2160.000
G1 X118.517 Y83.994 E11.69318
G1 X119.283 Y87.000 E11.78434
G1 X119.283 Y113.000 E12.54842
G1 X118.886 Y115.197 E12.61404
G1 X117.746 Y117.117 E12.67966
G1 X116.006 Y118.517 E12.74529
G1 X113.000 Y119.283 E12.83644
G1 X87.000 Y119.283 E13.60052
G1 X84.803 Y118.886 E13.66614
G1 X82.883 Y117.746 E13.73177
G1 X81.483 Y116.006 E13.79739
G1 X80.717 Y113.000 E13.88854
G1 X80.717 Y87.000 E14.65263
G1 X81.114 Y84.803 E14.71825
G1 X82.180 Y83.008 E14.77960
G1 E12.77960 F2400.00000
G92 E0
G1 X108.126 Y108.338 F6000.000
G1 E2.00000 F2400.00000
G1 X107.666 Y108.763 E2.01604 F1800.000
G1 X107.189 Y109.158 E2.03191
G1 X106.691 Y109.528 E2.04779
G1 X106.175 Y109.871 E2.06366
G1 X105.641 Y110.185 E2.07953
G1 X105.090 Y110.471 E2.09541
G1 X104.526 Y110.727 E2.11128
G1 X103.948 Y110.953 E2.12715
G1 X103.360 Y111.148 E2.14303
G1 X102.762 Y111.311 E2.15890
G1 X102.162 Y111.440 E2.17461
G1 X101.544 Y111.540 E2.19065
G1 X100.927 Y111.606 E2.20652
G1 X100.308 Y111.639 E2.22240
G1 X99.688 Y111.639 E2.23827
G1 X99.069 Y111.606 E2.25414
G1 X98.453 Y111.540 E2.27002
G1 X97.841 Y111.441 E2.28589
G1 X97.235 Y111.310 E2.30176
G1 X96.637 Y111.147 E2.31764
G1 X96.048 Y110.952 E2.33351
G1 X95.477 Y110.728 E2.34922
G1 X94.907 Y110.470 E2.36525
G1 X94.356 Y110.184 E2.38113
G1 X93.822 Y109.869 E2.39700
G1 X93.306 Y109.526 E2.41288
G1 X92.808 Y109.156 E2.42875
G1 X92.331 Y108.760 E2.44463
G1 X91.876 Y108.340 E2.46050
G1 X91.443 Y107.896 E2.47637
G1 X91.035 Y107.429 E2.49225
G1 X90.653 Y106.941 E2.50812
G1 X90.300 Y106.439 E2.52383
G1 X89.968 Y105.908 E2.53986
G1 X89.667 Y105.366 E2.55574
G1 X89.396 Y104.808 E2.57161
G1 X89.155 Y104.237 E2.58749
G1 X88.945 Y103.654 E2.60336
G1 X88.767 Y103.060 E2.61923
G1 X88.620 Y102.458 E2.63511
G1 X88.505 Y101.849 E2.65098
G1 X88.423 Y101.234 E2.66685
G1 X88.373 Y100.616 E2.68273
G1 X88.357 Y100.003 E2.69843
G1 X88.373 Y99.384 E2.71430
G1 X88.423 Y98.766 E2.73018
G1 X88.505 Y98.151 E2.74605
G1 X88.620 Y97.542 E2.76192
G1 X88.767 Y96.940 E2.77780
G1 X88.945 Y96.346 E2.79367
G1 X89.158 Y95.757 E2.80971
G1 X89.396 Y95.192 E2.82542
G1 X89.667 Y94.634 E2.84129
G1 X89.968 Y94.092 E2.85716
G1 X90.296 Y93.566 E2.87304
G1 X90.653 Y93.059 E2.88891
G1 X91.035 Y92.571 E2.90479
G1 X91.443 Y92.104 E2.92066
G1 X91.876 Y91.660 E2.93653
G1 X92.331 Y91.240 E2.95241
G1 X92.808 Y90.844 E2.96828
G1 X93.311 Y90.470 E2.98432
G1 X93.822 Y90.131 E3.00003
G1 X94.356 Y89.816 E3.01590
G1 X94.907 Y89.530 E3.03177
G1 X95.471 Y89.274 E3.04765
G1 X96.048 Y89.048 E3.06352
G1 X96.637 Y88.853 E3.07939
G1 X97.235 Y88.690 E3.09527
G1 X97.841 Y88.559 E3.11114
G1 X98.453 Y88.460 E3.12701
G1 X99.069 Y88.394 E3.14289
G1 X99.695 Y88.361 E3.15893
G1 X100.308 Y88.361 E3.17464 F1800.000
G1 X100.927 Y88.394 E3.19051
G1 X101.544 Y88.460 E3.20638
G1 X102.156 Y88.558 E3.22226
G1 X102.762 Y88.689 E3.23813
G1 X103.360 Y88.852 E3.25400
G1 X103.948 Y89.047 E3.26988
G1 X104.526 Y89.273 E3.28575
G1 X105.090 Y89.529 E3.30162
G1 X105.641 Y89.815 E3.31750
G1 X106.180 Y90.133 E3.33354
G1 X106.691 Y90.472 E3.34924
G1 X107.189 Y90.842 E3.36512
G1 X107.666 Y91.237 E3.38099
G1 X108.122 Y91.658 E3.39686
G1 X108.554 Y92.102 E3.41274
G1 X108.963 Y92.568 E3.42861
G1 X109.345 Y93.056 E3.44448
G1 X109.702 Y93.563 E3.46036
G1 X110.031 Y94.089 E3.47623
G1 X110.331 Y94.631 E3.49211
G1 X110.605 Y95.195 E3.50815
G1 X110.843 Y95.760 E3.52385
G1 X111.054 Y96.343 E3.53973
G1 X111.233 Y96.936 E3.55560
G1 X111.380 Y97.539 E3.57147
G1 X111.495 Y98.148 E3.58735
G1 X111.577 Y98.762 E3.60322
G1 X111.626 Y99.380 E3.61910
G1 X111.643 Y100.000 E3.63497
G1 X111.626 Y100.620 E3.65084
G1 X111.577 Y101.238 E3.66671
G1 X111.495 Y101.852 E3.68259
G1 X111.381 Y102.455 E3.69829
G1 X111.233 Y103.063 E3.71433
G1 X111.054 Y103.657 E3.73021
G1 X110.843 Y104.240 E3.74608
G1 X110.602 Y104.811 E3.76196
G1 X110.331 Y105.369 E3.77783
G1 X110.031 Y105.911 E3.79370
G1 X109.702 Y106.437 E3.80958
G1 X109.345 Y106.944 E3.82545
G1 X108.963 Y107.432 E3.84132
G1 X108.554 Y107.898 E3.85720
G1 X108.158 Y108.305 E3.87175
G1 X107.954 Y108.161 F6000.000
G1 X107.504 Y108.577 E3.88745 F1800.000
G1 X107.037 Y108.964 E3.90299
G1 X106.550 Y109.326 E3.91853
G1 X106.044 Y109.662 E3.93407
G1 X105.521 Y109.970 E3.94960
G1 X104.983 Y110.249 E3.96514
G1 X104.430 Y110.500 E3.98068
G1 X103.865 Y110.721 E3.99622
G1 X103.289 Y110.912 E4.01175
G1 X102.703 Y111.071 E4.02729
G1 X102.117 Y111.198 E4.04266
G1 X101.511 Y111.296 E4.05836
G1 X100.908 Y111.360 E4.07390
G1 X100.302 Y111.392 E4.08944
G1 X99.695 Y111.392 E4.10498
G1 X99.089 Y111.360 E4.12052
G1 X98.486 Y111.295 E4.13605
G1 X97.887 Y111.199 E4.15159
G1 X97.293 Y111.070 E4.16713
G1 X96.708 Y110.911 E4.18267
G1 X96.132 Y110.720 E4.19820
G1 X95.573 Y110.501 E4.21358
G1 X95.014 Y110.248 E4.22928
G1 X94.476 Y109.968 E4.24482
G1 X93.953 Y109.660 E4.26035
G1 X93.448 Y109.324 E4.27589
G1 X92.961 Y108.962 E4.29143
G1 X92.494 Y108.575 E4.30697
G1 X92.048 Y108.163 E4.32250
G1 X91.624 Y107.729 E4.33804
G1 X91.225 Y107.272 E4.35358
G1 X90.850 Y106.794 E4.36912
G1 X90.505 Y106.303 E4.38449
G1 X90.180 Y105.783 E4.40019
G1 X89.886 Y105.252 E4.41573
G1 X89.621 Y104.707 E4.43127
G1 X89.385 Y104.147 E4.44680
G1 X89.179 Y103.577 E4.46234
G1 X89.004 Y102.996 E4.47788
G1 X88.860 Y102.406 E4.49342
G1 X88.748 Y101.810 E4.50895
G1 X88.668 Y101.208 E4.52449
G1 X88.620 Y100.603 E4.54003
G1 X88.604 Y100.003 E4.55540
G1 X88.620 Y99.397 E4.57094
G1 X88.668 Y98.792 E4.58647
G1 X88.748 Y98.190 E4.60201
G1 X88.860 Y97.594 E4.61755
G1 X89.004 Y97.004 E4.63309
G1 X89.179 Y96.423 E4.64863
G1 X89.387 Y95.847 E4.66433
G1 X89.621 Y95.293 E4.67970
G1 X89.886 Y94.748 E4.69524
G1 X90.180 Y94.217 E4.71077
G1 X90.502 Y93.702 E4.72631
G1 X90.850 Y93.206 E4.74185
G1 X91.225 Y92.728 E4.75739
G1 X91.624 Y92.271 E4.77292
G1 X92.048 Y91.837 E4.78846
G1 X92.494 Y91.425 E4.80400
G1 X92.961 Y91.037 E4.81954
G1 X93.453 Y90.672 E4.83524
G1 X93.953 Y90.340 E4.85061
G1 X94.476 Y90.032 E4.86615
G1 X95.014 Y89.752 E4.88169
G1 X95.567 Y89.501 E4.89722
G1 X96.132 Y89.280 E4.91276
G1 X96.708 Y89.089 E4.92830
G1 X97.293 Y88.930 E4.94384
G1 X97.887 Y88.801 E4.95937
G1 X98.486 Y88.705 E4.97491
G1 X99.089 Y88.640 E4.99045
G1 X99.701 Y88.608 E5.00615
G1 X100.302 Y88.608 E5.02153 F1800.000
G1 X100.908 Y88.640 E5.03706
G1 X101.511 Y88.704 E5.05260
G1 X102.110 Y88.801 E5.06814
G1 X102.703 Y88.929 E5.08368
G1 X103.289 Y89.088 E5.09921
G1 X103.865 Y89.279 E5.11475
G1 X104.430 Y89.500 E5.13029
G1 X104.983 Y89.751 E5.14583
G1 X105.521 Y90.030 E5.16137
G1 X106.049 Y90.342 E5.17707
G1 X106.550 Y90.674 E5.19244
G1 X107.037 Y91.035 E5.20798
G1 X107.504 Y91.423 E5.22351
G1 X107.950 Y91.834 E5.23905
G1 X108.373 Y92.269 E5.25459
G1 X108.773 Y92.726 E5.27013
G1 X109.148 Y93.203 E5.28566
G1 X109.497 Y93.700 E5.30120
G1 X109.818 Y94.214 E5.31674
G1 X110.113 Y94.745 E5.33228
G1 X110.380 Y95.296 E5.34798
G1 X110.614 Y95.849 E5.36335
G1 X110.820 Y96.420 E5.37889
G1 X110.995 Y97.001 E5.39443
G1 X111.139 Y97.591 E5.40996
G1 X111.251 Y98.187 E5.42550
G1 X111.332 Y98.789 E5.44104
G1 X111.380 Y99.393 E5.45658
G1 X111.396 Y100.000 E5.47211
G1 X111.380 Y100.607 E5.48765
G1 X111.332 Y101.211 E5.50319
G1 X111.251 Y101.813 E5.51873
G1 X111.140 Y102.403 E5.53410
G1 X110.995 Y102.999 E5.54980
G1 X110.820 Y103.580 E5.56534
G1 X110.614 Y104.151 E5.58088
G1 X110.378 Y104.710 E5.59641
G1 X110.112 Y105.255 E5.61195
G1 X109.818 Y105.786 E5.62749
G1 X109.497 Y106.300 E5.64303
G1 X109.148 Y106.797 E5.65856
G1 X108.773 Y107.274 E5.67410
G1 X108.373 Y107.731 E5.68964
G1 X107.986 Y108.129 E5.70386
G1 X107.783 Y107.985 F6000.000
G1 X107.342 Y108.392 E5.71922 F1440.000
G1 X106.885 Y108.771 E5.73443
G1 X106.408 Y109.125 E5.74963
G1 X105.913 Y109.453 E5.76483
G1 X105.402 Y109.754 E5.78003
G1 X104.875 Y110.028 E5.79523
G1 X104.334 Y110.273 E5.81043
G1 X103.781 Y110.489 E5.82564
G1 X103.218 Y110.676 E5.84084
G1 X102.645 Y110.832 E5.85604
G1 X102.071 Y110.956 E5.87108
G1 X101.478 Y111.052 E5.88644
G1 X100.888 Y111.115 E5.90164
G1 X100.295 Y111.146 E5.91684
G1 X99.702 Y111.146 E5.93205
G1 X99.109 Y111.114 E5.94725
G1 X98.518 Y111.051 E5.96245
G1 X97.932 Y110.957 E5.97765
G1 X97.352 Y110.831 E5.99285
G1 X96.779 Y110.675 E6.00805
G1 X96.216 Y110.488 E6.02326
G1 X95.669 Y110.274 E6.03829
G1 X95.122 Y110.026 E6.05366
G1 X94.595 Y109.753 E6.06886
G1 X94.084 Y109.451 E6.08406
G1 X93.589 Y109.123 E6.09926
G1 X93.113 Y108.769 E6.11446
G1 X92.656 Y108.390 E6.12967
G1 X92.220 Y107.987 E6.14487
G1 X91.806 Y107.561 E6.16007
G1 X91.415 Y107.115 E6.17527
G1 X91.048 Y106.647 E6.19047
G1 X90.711 Y106.167 E6.20551
G1 X90.392 Y105.658 E6.22087
G1 X90.105 Y105.139 E6.23608
G1 X89.845 Y104.605 E6.25128
G1 X89.615 Y104.058 E6.26648
G1 X89.413 Y103.499 E6.28168
G1 X89.242 Y102.931 E6.29688
G1 X89.101 Y102.354 E6.31208
G1 X88.991 Y101.771 E6.32729
G1 X88.913 Y101.182 E6.34249
G1 X88.866 Y100.590 E6.35769
G1 X88.850 Y100.003 E6.37273
G1 X88.866 Y99.410 E6.38793
G1 X88.913 Y98.818 E6.40313
G1 X88.991 Y98.229 E6.41833
G1 X89.101 Y97.646 E6.43353
G1 X89.242 Y97.069 E6.44873
G1 X89.413 Y96.501 E6.46394
G1 X89.617 Y95.936 E6.47930
G1 X89.845 Y95.395 E6.49434
G1 X90.105 Y94.861 E6.50954
G1 X90.392 Y94.342 E6.52474
G1 X90.707 Y93.838 E6.53994
G1 X91.048 Y93.353 E6.55515
G1 X91.415 Y92.885 E6.57035
G1 X91.806 Y92.439 E6.58555
G1 X92.220 Y92.013 E6.60075
G1 X92.656 Y91.610 E6.61595
G1 X93.113 Y91.231 E6.63115
G1 X93.595 Y90.874 E6.64652
G1 X94.084 Y90.549 E6.66156
G1 X94.595 Y90.247 E6.67676
G1 X95.122 Y89.974 E6.69196
G1 X95.663 Y89.728 E6.70716
G1 X96.216 Y89.512 E6.72236
G1 X96.779 Y89.325 E6.73756
G1 X97.352 Y89.169 E6.75277
G1 X97.932 Y89.043 E6.76797
G1 X98.518 Y88.949 E6.78317
G1 X99.109 Y88.886 E6.79837
G1 X99.708 Y88.854 E6.81373
G1 X100.295 Y88.854 E6.82877 F1440.000
G1 X100.888 Y88.885 E6.84397
G1 X101.478 Y88.948 E6.85918
G1 X102.065 Y89.043 E6.87438
G1 X102.645 Y89.168 E6.88958
G1 X103.218 Y89.324 E6.90478
G1 X103.781 Y89.511 E6.91998
G1 X104.334 Y89.727 E6.93518
G1 X104.875 Y89.972 E6.95039
G1 X105.402 Y90.246 E6.96559
G1 X105.919 Y90.551 E6.98095
G1 X106.408 Y90.875 E6.99599
G1 X106.885 Y91.229 E7.01119
G1 X107.342 Y91.608 E7.02639
G1 X107.778 Y92.011 E7.04159
G1 X108.192 Y92.436 E7.05680
G1 X108.583 Y92.883 E7.07200
G1 X108.950 Y93.350 E7.08720
G1 X109.291 Y93.836 E7.10240
G1 X109.606 Y94.339 E7.11760
G1 X109.894 Y94.858 E7.13281
G1 X110.156 Y95.398 E7.14817
G1 X110.384 Y95.939 E7.16321
G1 X110.586 Y96.498 E7.17841
G1 X110.757 Y97.066 E7.19361
G1 X110.898 Y97.643 E7.20881
G1 X111.008 Y98.226 E7.22401
G1 X111.087 Y98.815 E7.23921
G1 X111.134 Y99.407 E7.25442
G1 X111.150 Y100.000 E7.26962
G1 X111.134 Y100.593 E7.28482
G1 X111.087 Y101.185 E7.30002
G1 X111.008 Y101.774 E7.31522
G1 X110.899 Y102.351 E7.33026
G1 X110.757 Y102.934 E7.34562
G1 X110.586 Y103.502 E7.36083
G1 X110.384 Y104.061 E7.37603
G1 X110.153 Y104.608 E7.39123
G1 X109.894 Y105.142 E7.40643
G1 X109.606 Y105.661 E7.42163
G1 X109.291 Y106.164 E7.43684
G1 X108.950 Y106.650 E7.45204
G1 X108.583 Y107.117 E7.46724
G1 X108.192 Y107.564 E7.48244
G1 X107.814 Y107.952 E7.49633
G1 X107.854 Y108.276 F6000.000
G1 X112.357 Y112.357 F6000.000
G1 X87.643 Y112.357 E8.12915 F1800.000
G1 X87.643 Y87.643 E8.76197
G1 X112.357 Y87.643 E9.39478
G1 X112.357 Y112.312 E10.02645
G1 X112.604 Y112.604 F6000.000
G1 X87.396 Y112.604 E10.67189 F1800.000
G1 X87.396 Y87.396 E11.31732
G1 X112.604 Y87.396 E11.96276
G1 X112.604 Y112.559 E12.60704
G1 X112.850 Y112.850 F6000.000
G1 X87.150 Y112.850 E13.26509 F1440.000
G1 X87.150 Y87.150 E13.92314
G1 X112.850 Y87.150 E14.58119
G1 X112.850 Y112.805 E15.23809
G1 X112.590 Y112.700 F6000.000
G1 X111.221 Y96.364 F6000.000
G1 X112.220 Y97.363 E15.27438 F1800.000
G1 X112.220 Y97.713 E15.28336
G1 X111.370 Y96.862 E15.31425
G1 X111.483 Y97.325 E15.32649
G1 X112.220 Y98.062 E15.35327
G1 X112.220 Y98.412 E15.36226
G1 X111.573 Y97.764 E15.38578
G1 X111.646 Y98.187 E15.39680
G1 X112.220 Y98.761 E15.41768
G1 X112.220 Y99.111 E15.42666
G1 X111.700 Y98.590 E15.44557
G1 X111.736 Y98.976 E15.45553
G1 X112.220 Y99.461 E15.47312
G1 X112.220 Y99.810 E15.48210
G1 X111.764 Y99.354 E15.49867
G1 X111.774 Y99.713 E15.50790
G1 X112.220 Y100.160 E15.52412
G1 X112.220 Y100.509 E15.53310
G1 X111.777 Y100.066 E15.54920
G1 X111.768 Y100.407 E15.55796
G1 X112.220 Y100.859 E15.57439
G1 X112.220 Y101.208 E15.58337
G1 X111.750 Y100.739 E15.60044
G1 X111.725 Y101.062 E15.60878
G1 X112.220 Y101.558 E15.62679
G1 X112.220 Y101.908 E15.63577
G1 X111.690 Y101.377 E15.65504
G1 X111.649 Y101.686 E15.66303
G1 X112.220 Y102.257 E15.68379
G1 X112.220 Y102.607 E15.69277
G1 X111.600 Y101.986 E15.71531
G1 X111.544 Y102.281 E15.72300
G1 X112.220 Y102.956 E15.74755
G1 X112.220 Y103.306 E15.75654
G1 X111.483 Y102.569 E15.78332
G1 X111.415 Y102.850 E15.79075
G1 X112.220 Y103.655 E15.82002
G1 X112.220 Y104.005 E15.82900
G1 X111.343 Y103.128 E15.86087
G1 X111.262 Y103.396 E15.86808
G1 X112.220 Y104.355 E15.90289
G1 X112.220 Y104.704 E15.91188
G1 X111.181 Y103.665 E15.94964
G1 X111.088 Y103.922 E15.95665
G1 X112.220 Y105.054 E15.99778
G1 X112.220 Y105.403 E16.00676
G1 X110.996 Y104.179 E16.05125
G1 X110.895 Y104.428 E16.05816
G1 X112.220 Y105.753 E16.10630
G1 X112.220 Y106.103 E16.11528
G1 X110.792 Y104.674 E16.16719
G1 X110.684 Y104.916 E16.17400
G1 X112.220 Y106.452 E16.22980
G1 X112.220 Y106.802 E16.23879
G1 X110.570 Y105.151 E16.29875
G1 X110.455 Y105.387 E16.30547
G1 X112.220 Y107.151 E16.36959
G1 X112.220 Y107.501 E16.37857
G1 X110.332 Y105.612 E16.44720
G1 X110.207 Y105.837 E16.45380
G1 X112.220 Y107.850 E16.52695
G1 X112.220 Y108.200 E16.53594
G1 X110.078 Y106.057 E16.61379
G1 X109.943 Y106.273 E16.62030
G1 X112.220 Y108.550 E16.70304
G1 X112.220 Y108.899 E16.71202
G1 X109.809 Y106.488 E16.79965
G1 X109.664 Y106.693 E16.80610
G1 X112.220 Y109.249 E16.89897
G1 X112.220 Y109.598 E16.90795
G1 X109.520 Y106.898 E17.00606
G1 X109.371 Y107.099 E17.01248
G1 X112.220 Y109.948 E17.11599
G1 X112.220 Y110.298 E17.12497
